etc/img/icons/codicons-set/terminal-linux.svg

<svg width="16" height="16" viewBox="0 0 16 16" xmlns="http://www.w3.org/2000/svg" fill="white"><path d="M13.2812 11.1562C13.4479 11.2292 13.5729 11.3281 13.6562 11.4531C13.7396 11.5781 13.7995 11.7292 13.8359 11.9062C13.8568 12.0104 13.8802 12.1068 13.9062 12.1953C13.9323 12.2839 13.9635 12.3672 14 12.4453C14.0365 12.5234 14.0781 12.599 14.125 12.6719C14.1719 12.7448 14.2344 12.8255 14.3125 12.9141C14.3802 12.987 14.4401 13.0807 14.4922 13.1953C14.5443 13.3099 14.5703 13.4193 14.5703 13.5234C14.5703 13.6432 14.5391 13.7448 14.4766 13.8281C14.4141 13.9115 14.3359 13.9844 14.2422 14.0469C14.1224 14.1302 13.9974 14.2031 13.8672 14.2656C13.737 14.3281 13.6068 14.3932 13.4766 14.4609C13.263 14.5651 13.0781 14.6745 12.9219 14.7891C12.7656 14.9036 12.6094 15.0495 12.4531 15.2266C12.3698 15.3203 12.276 15.4115 12.1719 15.5C12.0677 15.5885 11.9531 15.6719 11.8281 15.75C11.7031 15.8281 11.5755 15.8854 11.4453 15.9219C11.3151 15.9583 11.1849 15.9818 11.0547 15.9922C10.7526 15.9922 10.5026 15.9401 10.3047 15.8359C10.1068 15.7318 9.9349 15.5417 9.78906 15.2656C9.7474 15.1875 9.70573 15.138 9.66406 15.1172C9.6224 15.0964 9.55469 15.0781 9.46094 15.0625C9.19531 15.0417 8.93229 15.0208 8.67188 15C8.41146 14.9792 8.14583 14.9688 7.875 14.9688C7.65625 14.9688 7.43229 14.987 7.20312 15.0234C6.97396 15.0599 6.7474 15.1042 6.52344 15.1562C6.47656 15.1667 6.42969 15.2057 6.38281 15.2734C6.33594 15.3411 6.27083 15.4167 6.1875 15.5C6.10417 15.5833 5.99219 15.6562 5.85156 15.7188C5.71094 15.7812 5.52604 15.8151 5.29688 15.8203C5.125 15.8203 4.9401 15.8021 4.74219 15.7656C4.54427 15.7292 4.36719 15.6693 4.21094 15.5859C3.88802 15.4245 3.57031 15.3151 3.25781 15.2578C2.94531 15.2005 2.61458 15.1484 2.26562 15.1016C2.14583 15.0859 2.03125 15.0651 1.92188 15.0391C1.8125 15.013 1.71615 14.9688 1.63281 14.9062C1.54948 14.8438 1.48438 14.7708 1.4375 14.6875C1.39062 14.6042 1.36458 14.487 1.35938 14.3359C1.35938 14.1745 1.38021 14.0182 1.42188 13.8672C1.46354 13.7161 1.48698 13.5573 1.49219 13.3906C1.49219 13.276 1.48438 13.1641 1.46875 13.0547C1.45312 12.9453 1.44271 12.8281 1.4375 12.7031C1.4375 12.4375 1.5 12.2422 1.625 12.1172C1.75 11.9922 1.93229 11.8932 2.17188 11.8203C2.28646 11.7839 2.38542 11.7344 2.46875 11.6719C2.55208 11.6094 2.63021 11.5417 2.70312 11.4688C2.77604 11.3958 2.84375 11.3151 2.90625 11.2266C2.96875 11.138 3.03906 11.0495 3.11719 10.9609C3.13281 10.9401 3.14062 10.9167 3.14062 10.8906C3.14062 10.8281 3.13802 10.7682 3.13281 10.7109C3.1276 10.6536 3.1224 10.5911 3.11719 10.5234C3.11719 10.1693 3.17188 9.8125 3.28125 9.45312C3.39062 9.09375 3.53385 8.74219 3.71094 8.39844C3.88802 8.05469 4.08594 7.72396 4.30469 7.40625C4.52344 7.08854 4.73958 6.79427 4.95312 6.52344C5.25521 6.13802 5.48177 5.73698 5.63281 5.32031C5.78385 4.90365 5.86198 4.45052 5.86719 3.96094C5.86719 3.7526 5.85677 3.54688 5.83594 3.34375C5.8151 3.14062 5.80469 2.93229 5.80469 2.71875C5.80469 2.30208 5.85156 1.92708 5.94531 1.59375C6.03906 1.26042 6.1849 0.973958 6.38281 0.734375C6.58073 0.494792 6.83854 0.315104 7.15625 0.195312C7.47396 0.0755208 7.85417 0.0104167 8.29688 0C8.82292 0 9.24219 0.104167 9.55469 0.3125C9.86719 0.520833 10.1068 0.794271 10.2734 1.13281C10.4401 1.47135 10.5469 1.84896 10.5938 2.26562C10.6406 2.68229 10.6667 3.10417 10.6719 3.53125V3.66406C10.6719 3.8776 10.6745 4.06771 10.6797 4.23438C10.6849 4.40104 10.7057 4.5651 10.7422 4.72656C10.7786 4.88802 10.8333 5.04948 10.9062 5.21094C10.9792 5.3724 11.0885 5.54688 11.2344 5.73438C11.4844 6.0625 11.7396 6.39323 12 6.72656C12.2604 7.0599 12.4974 7.40365 12.7109 7.75781C12.9245 8.11198 13.099 8.48177 13.2344 8.86719C13.3698 9.2526 13.4401 9.66927 13.4453 10.1172C13.4453 10.4766 13.3906 10.8229 13.2812 11.1562ZM6.72656 3.01562C6.79948 3.01562 6.85938 3.03385 6.90625 3.07031C6.95312 3.10677 6.98958 3.15625 7.01562 3.21875C7.04167 3.28125 7.0599 3.34375 7.07031 3.40625C7.08073 3.46875 7.08594 3.53385 7.08594 3.60156C7.08594 3.65365 7.07812 3.69531 7.0625 3.72656C7.04688 3.75781 7.02344 3.78646 6.99219 3.8125C6.96094 3.83854 6.92969 3.86458 6.89844 3.89062C6.86719 3.91667 6.83594 3.94792 6.80469 3.98438C6.76823 4.04167 6.71875 4.08854 6.65625 4.125C6.59375 4.16146 6.53385 4.20052 6.47656 4.24219C6.41927 4.28385 6.36719 4.32812 6.32031 4.375C6.27344 4.42188 6.25 4.48698 6.25 4.57031C6.25 4.61719 6.27344 4.65625 6.32031 4.6875C6.44531 4.77083 6.53385 4.8724 6.58594 4.99219C6.63802 5.11198 6.69531 5.22917 6.75781 5.34375C6.82031 5.45833 6.90104 5.55469 7 5.63281C7.09896 5.71094 7.2526 5.75 7.46094 5.75H7.50781C7.71615 5.73958 7.91406 5.6849 8.10156 5.58594C8.28906 5.48698 8.47656 5.38281 8.66406 5.27344C8.6901 5.25781 8.72396 5.24219 8.76562 5.22656C8.80729 5.21094 8.84115 5.19271 8.86719 5.17188L9.4375 4.72656C9.44792 4.6901 9.45573 4.65625 9.46094 4.625C9.46615 4.59375 9.47135 4.55729 9.47656 4.51562C9.47656 4.45833 9.46354 4.41146 9.4375 4.375C9.41146 4.33854 9.38021 4.30729 9.34375 4.28125C9.30729 4.25521 9.26302 4.23698 9.21094 4.22656C9.15885 4.21615 9.11198 4.20312 9.07031 4.1875C8.94531 4.16146 8.82812 4.11458 8.71875 4.04688C8.60938 3.97917 8.49479 3.92708 8.375 3.89062C8.35417 3.88542 8.33854 3.86979 8.32812 3.84375C8.31771 3.81771 8.30729 3.78646 8.29688 3.75C8.28646 3.71354 8.28385 3.67969 8.28906 3.64844C8.29427 3.61719 8.29167 3.59115 8.28125 3.57031C8.28125 3.50781 8.28646 3.44271 8.29688 3.375C8.30729 3.30729 8.33073 3.24219 8.36719 3.17969C8.40365 3.11719 8.44531 3.07031 8.49219 3.03906C8.53906 3.00781 8.60677 2.98958 8.69531 2.98438C8.85677 2.98438 8.97396 3.04427 9.04688 3.16406C9.11979 3.28385 9.15885 3.41406 9.16406 3.55469C9.16406 3.6224 9.15104 3.68229 9.125 3.73438C9.09896 3.78646 9.08594 3.84375 9.08594 3.90625C9.08594 3.94792 9.09896 3.97656 9.125 3.99219C9.15104 4.00781 9.1849 4.01823 9.22656 4.02344C9.34635 4.02344 9.42448 3.99479 9.46094 3.9375C9.4974 3.88021 9.51823 3.79427 9.52344 3.67969C9.52344 3.5599 9.51302 3.42708 9.49219 3.28125C9.47135 3.13542 9.42969 3 9.36719 2.875C9.30469 2.75 9.22396 2.64583 9.125 2.5625C9.02604 2.47917 8.89844 2.4375 8.74219 2.4375C8.47135 2.4375 8.27604 2.50521 8.15625 2.64062C8.03646 2.77604 7.97396 2.97917 7.96875 3.25C7.96875 3.32812 7.97396 3.40625 7.98438 3.48438C7.99479 3.5625 8 3.64062 8 3.71875C8 3.74479 7.9974 3.75781 7.99219 3.75781C7.98698 3.75781 7.97135 3.7526 7.94531 3.74219C7.91927 3.73177 7.88802 3.71875 7.85156 3.70312C7.8151 3.6875 7.77604 3.67448 7.73438 3.66406C7.69271 3.65365 7.65104 3.64844 7.60938 3.64844C7.59896 3.64844 7.57292 3.65104 7.53125 3.65625C7.48958 3.66146 7.44792 3.66406 7.40625 3.66406C7.33333 3.66406 7.29688 3.65104 7.29688 3.625C7.29688 3.54688 7.29167 3.44792 7.28125 3.32812C7.27083 3.20833 7.24479 3.08854 7.20312 2.96875C7.16146 2.84896 7.10938 2.75 7.04688 2.67188C6.98438 2.59375 6.89062 2.55208 6.76562 2.54688C6.67708 2.54688 6.60156 2.57552 6.53906 2.63281C6.47656 2.6901 6.42188 2.75781 6.375 2.83594C6.32812 2.91406 6.29948 3.0026 6.28906 3.10156C6.27865 3.20052 6.26823 3.28385 6.25781 3.35156C6.25781 3.38281 6.26302 3.4375 6.27344 3.51562C6.28385 3.59375 6.30208 3.67448 6.32812 3.75781C6.35417 3.84115 6.38281 3.91406 6.41406 3.97656C6.44531 4.03906 6.48177 4.07031 6.52344 4.07031C6.54948 4.07031 6.58333 4.05208 6.625 4.01562C6.66667 3.97917 6.6875 3.94531 6.6875 3.91406C6.6875 3.89844 6.67969 3.88802 6.66406 3.88281C6.64844 3.8776 6.63281 3.875 6.61719 3.875C6.58073 3.875 6.54948 3.85677 6.52344 3.82031C6.4974 3.78385 6.47656 3.74219 6.46094 3.69531C6.44531 3.64844 6.42969 3.59896 6.41406 3.54688C6.39844 3.49479 6.39323 3.45573 6.39844 3.42969C6.39844 3.32552 6.42188 3.23177 6.46875 3.14844C6.51562 3.0651 6.60156 3.02083 6.72656 3.01562ZM5.02344 15.1797C5.14844 15.1797 5.27083 15.1693 5.39062 15.1484C5.51042 15.1276 5.6224 15.0859 5.72656 15.0234C5.83073 14.9609 5.90885 14.8802 5.96094 14.7812C6.01302 14.6823 6.04427 14.5573 6.05469 14.4062C6.05469 14.3125 6.03906 14.2214 6.00781 14.1328C5.97656 14.0443 5.93229 13.9609 5.875 13.8828C5.8125 13.7839 5.74479 13.6901 5.67188 13.6016C5.59896 13.513 5.53125 13.4193 5.46875 13.3203C5.36979 13.1745 5.27344 13.0312 5.17969 12.8906C5.08594 12.75 4.99219 12.6016 4.89844 12.4453C4.8151 12.3099 4.73698 12.1745 4.66406 12.0391C4.59115 11.9036 4.5026 11.7708 4.39844 11.6406C4.33594 11.5625 4.26302 11.4922 4.17969 11.4297C4.09635 11.3672 4 11.3359 3.89062 11.3359C3.77604 11.3359 3.67708 11.3724 3.59375 11.4453C3.51042 11.5182 3.42448 11.6068 3.33594 11.7109C3.2474 11.8151 3.14844 11.9167 3.03906 12.0156C2.92969 12.1146 2.78906 12.1927 2.61719 12.25C2.48177 12.2917 2.3776 12.349 2.30469 12.4219C2.23177 12.4948 2.19531 12.6068 2.19531 12.7578C2.19531 12.862 2.20312 12.9661 2.21875 13.0703C2.23438 13.1745 2.24479 13.2786 2.25 13.3828C2.25 13.5234 2.22917 13.6562 2.1875 13.7812C2.14583 13.9062 2.125 14.0286 2.125 14.1484C2.125 14.2891 2.17448 14.388 2.27344 14.4453C2.3724 14.5026 2.48438 14.5417 2.60938 14.5625C2.76562 14.5885 2.91406 14.6094 3.05469 14.625C3.19531 14.6406 3.33333 14.6641 3.46875 14.6953C3.60417 14.7266 3.73958 14.7604 3.875 14.7969C4.01042 14.8333 4.15365 14.8906 4.30469 14.9688C4.33594 14.9844 4.38281 15.0026 4.44531 15.0234C4.50781 15.0443 4.57812 15.0677 4.65625 15.0938C4.73438 15.1198 4.80729 15.1406 4.875 15.1562C4.94271 15.1719 4.99219 15.1797 5.02344 15.1797ZM7.88281 14.2422C8.02865 14.2422 8.1849 14.2266 8.35156 14.1953C8.51823 14.1641 8.6849 14.1198 8.85156 14.0625C9.01823 14.0052 9.17708 13.9375 9.32812 13.8594C9.47917 13.7812 9.61458 13.6953 9.73438 13.6016C9.74479 13.5911 9.75521 13.5755 9.76562 13.5547C9.77604 13.5339 9.78385 13.513 9.78906 13.4922V13.4844C9.82031 13.3698 9.84635 13.2448 9.86719 13.1094C9.88802 12.974 9.90625 12.8359 9.92188 12.6953C9.9375 12.5547 9.95573 12.4167 9.97656 12.2812C9.9974 12.1458 10.0156 12.013 10.0312 11.8828C10.0521 11.7422 10.0781 11.6068 10.1094 11.4766C10.1406 11.3464 10.1823 11.224 10.2344 11.1094C10.2865 10.9948 10.3568 10.8932 10.4453 10.8047C10.5339 10.7161 10.6484 10.6328 10.7891 10.5547V10.5391L10.7812 10.5156C10.7812 10.4688 10.7969 10.4193 10.8281 10.3672C10.8594 10.3151 10.8984 10.2604 10.9453 10.2031C10.9922 10.1458 11.0417 10.1016 11.0938 10.0703C11.1458 10.0391 11.2005 10.013 11.2578 9.99219C11.2266 9.86719 11.1927 9.74219 11.1562 9.61719C11.1198 9.49219 11.0885 9.36719 11.0625 9.24219C11.0312 9.05469 11 8.89583 10.9688 8.76562C10.9375 8.63542 10.901 8.51562 10.8594 8.40625C10.8177 8.29688 10.7578 8.1901 10.6797 8.08594C10.6016 7.98177 10.5052 7.85677 10.3906 7.71094C10.3333 7.64323 10.2943 7.59115 10.2734 7.55469C10.2526 7.51823 10.237 7.45312 10.2266 7.35938C10.2214 7.32292 10.2057 7.25521 10.1797 7.15625C10.1536 7.05729 10.1198 6.94271 10.0781 6.8125C10.0365 6.68229 9.98958 6.54688 9.9375 6.40625C9.88542 6.26562 9.82812 6.13802 9.76562 6.02344C9.70312 5.90885 9.64583 5.8125 9.59375 5.73438C9.54167 5.65625 9.48698 5.61719 9.42969 5.61719C9.30469 5.61719 9.15625 5.66667 8.98438 5.76562C8.8125 5.86458 8.63021 5.97396 8.4375 6.09375C8.24479 6.21354 8.05729 6.32552 7.875 6.42969C7.69271 6.53385 7.52865 6.58333 7.38281 6.57812C7.22656 6.57812 7.08333 6.52865 6.95312 6.42969C6.82292 6.33073 6.70312 6.21615 6.59375 6.08594C6.48438 5.95573 6.39323 5.84375 6.32031 5.75C6.2474 5.65625 6.19271 5.60417 6.15625 5.59375C6.11458 5.59375 6.09115 5.625 6.08594 5.6875C6.08073 5.75 6.07812 5.82031 6.07812 5.89844V6.03125C6.07812 6.0625 6.07292 6.08333 6.0625 6.09375C6.00521 6.21354 5.94271 6.33073 5.875 6.44531C5.80729 6.5599 5.73958 6.67708 5.67188 6.79688C5.60417 6.91667 5.55208 7.03906 5.51562 7.16406C5.47917 7.28906 5.45833 7.41927 5.45312 7.55469C5.45312 7.63281 5.45833 7.71094 5.46875 7.78906C5.47917 7.86719 5.50521 7.94271 5.54688 8.01562L5.53125 8.04688C5.48958 8.10417 5.44531 8.15625 5.39844 8.20312C5.35156 8.25 5.30729 8.30469 5.26562 8.36719C5.07292 8.65365 4.9375 8.96354 4.85938 9.29688C4.78125 9.63021 4.73958 9.96875 4.73438 10.3125C4.73438 10.401 4.73958 10.4896 4.75 10.5781C4.76042 10.6667 4.76562 10.7552 4.76562 10.8438C4.76562 10.8698 4.76302 10.8984 4.75781 10.9297C4.7526 10.9609 4.75 10.9896 4.75 11.0156C4.83854 11.0208 4.94271 11.0573 5.0625 11.125C5.18229 11.1927 5.3125 11.2786 5.45312 11.3828C5.59375 11.487 5.72656 11.6068 5.85156 11.7422C5.97656 11.8776 6.09635 12.0104 6.21094 12.1406C6.32552 12.2708 6.40885 12.401 6.46094 12.5312C6.51302 12.6615 6.54688 12.7682 6.5625 12.8516C6.5625 12.987 6.52083 13.0964 6.4375 13.1797C6.35417 13.263 6.25 13.3307 6.125 13.3828C6.21354 13.5391 6.32292 13.6719 6.45312 13.7812C6.58333 13.8906 6.72396 13.9792 6.875 14.0469C7.02604 14.1146 7.1901 14.1641 7.36719 14.1953C7.54427 14.2266 7.71615 14.2422 7.88281 14.2422ZM11.0156 15.3516C11.125 15.3516 11.2318 15.3359 11.3359 15.3047C11.4974 15.2578 11.6458 15.1901 11.7812 15.1016C11.9167 15.013 12.0417 14.9036 12.1562 14.7734C12.2969 14.612 12.4453 14.4714 12.6016 14.3516C12.7578 14.2318 12.9349 14.1224 13.1328 14.0234C13.2214 13.9818 13.3073 13.9427 13.3906 13.9062C13.474 13.8698 13.5599 13.8255 13.6484 13.7734C13.7057 13.737 13.7604 13.6927 13.8125 13.6406C13.8646 13.5885 13.8906 13.526 13.8906 13.4531C13.8906 13.4115 13.8828 13.3724 13.8672 13.3359C13.8516 13.2995 13.8281 13.2604 13.7969 13.2188C13.7188 13.1094 13.651 13.0078 13.5938 12.9141C13.5365 12.8203 13.487 12.7214 13.4453 12.6172C13.4036 12.513 13.362 12.4089 13.3203 12.3047C13.2786 12.2005 13.2422 12.0833 13.2109 11.9531C13.2057 11.9271 13.1875 11.8932 13.1562 11.8516C13.0469 11.6953 12.8932 11.6172 12.6953 11.6172C12.6016 11.6172 12.513 11.6406 12.4297 11.6875C12.3464 11.7344 12.2578 11.7839 12.1641 11.8359C12.0703 11.888 11.9766 11.9375 11.8828 11.9844C11.7891 12.0312 11.6901 12.0547 11.5859 12.0547C11.4818 12.0547 11.3958 12.0286 11.3281 11.9766C11.2604 11.9245 11.2031 11.8542 11.1562 11.7656C11.1094 11.6771 11.0703 11.5911 11.0391 11.5078C11.0078 11.4245 10.9766 11.3385 10.9453 11.25C10.9036 11.3177 10.8568 11.3802 10.8047 11.4375C10.7526 11.4948 10.7109 11.5625 10.6797 11.6406C10.612 11.7969 10.5703 11.9714 10.5547 12.1641C10.5286 12.4661 10.4948 12.7604 10.4531 13.0469C10.4115 13.3333 10.3411 13.6198 10.2422 13.9062C10.2161 13.9896 10.1953 14.0807 10.1797 14.1797C10.1641 14.2786 10.1536 14.375 10.1484 14.4688C10.1484 14.724 10.2266 14.9349 10.3828 15.1016C10.5391 15.2682 10.75 15.3516 11.0156 15.3516Z"/></svg>

<svg width="16" height="16" viewBox="0 0 16 16" xmlns="http://www.w3.org/2000/svg" fill="white"><path d="M13.281 11.156a.84.84 0 0 1 .375.297c.084.125.143.276.18.453.02.104.044.2.07.29a1.772 1.772 0 0 0 .219.476c.047.073.11.153.188.242.067.073.127.167.18.281a.793.793 0 0 1 .077.328.49.49 0 0 1-.093.305.944.944 0 0 1-.235.219c-.12.083-.245.156-.375.219-.13.062-.26.127-.39.195a3.624 3.624 0 0 0-.555.328c-.156.115-.313.26-.469.438a2.815 2.815 0 0 1-.625.523 1.471 1.471 0 0 1-.383.172c-.13.036-.26.06-.39.07-.302 0-.552-.052-.75-.156-.198-.104-.37-.294-.516-.57-.042-.079-.083-.128-.125-.149a.774.774 0 0 0-.203-.055L8.67 15c-.26-.02-.525-.031-.796-.031a4.28 4.28 0 0 0-.672.054c-.229.037-.456.081-.68.133-.046.01-.093.05-.14.117a1.7 1.7 0 0 1-.196.227 1.106 1.106 0 0 1-.335.219 1.475 1.475 0 0 1-.555.101c-.172 0-.357-.018-.555-.054a1.82 1.82 0 0 1-.531-.18 3.578 3.578 0 0 0-.953-.328c-.313-.057-.643-.11-.992-.156a3.392 3.392 0 0 1-.344-.063.774.774 0 0 1-.29-.133.705.705 0 0 1-.194-.219.78.78 0 0 1-.079-.351c0-.162.021-.318.063-.469.042-.15.065-.31.07-.476 0-.115-.008-.227-.023-.336a3.53 3.53 0 0 1-.032-.352c0-.265.063-.46.188-.586.125-.125.307-.224.547-.297a.99.99 0 0 0 .297-.148 2.27 2.27 0 0 0 .234-.203 1.86 1.86 0 0 0 .203-.242c.063-.089.133-.178.211-.266a.114.114 0 0 0 .024-.07c0-.063-.003-.123-.008-.18l-.016-.188c0-.354.055-.71.164-1.07.11-.36.253-.71.43-1.055a9.08 9.08 0 0 1 .594-.992c.218-.317.435-.612.648-.883a4.35 4.35 0 0 0 .68-1.203c.15-.416.229-.87.234-1.36 0-.207-.01-.413-.031-.616a6.122 6.122 0 0 1-.031-.625c0-.417.047-.792.14-1.125.094-.334.24-.62.438-.86s.456-.419.773-.539C7.474.075 7.854.01 8.296 0c.527 0 .946.104 1.259.313.312.208.552.481.718.82.167.338.274.716.32 1.133.048.416.074.838.079 1.265v.133c0 .214.002.404.008.57a2.527 2.527 0 0 0 .226.977c.073.161.182.336.328.523.25.329.506.66.766.993.26.333.497.677.71 1.03.214.355.389.725.524 1.11.136.386.206.802.211 1.25a3.3 3.3 0 0 1-.164 1.04zm-6.554-8.14c.072 0 .132.018.18.054a.357.357 0 0 1 .109.149.85.85 0 0 1 .054.187c.01.063.016.128.016.196a.282.282 0 0 1-.024.125.27.27 0 0 1-.07.086l-.094.078a.796.796 0 0 0-.093.093.428.428 0 0 1-.149.141 2.129 2.129 0 0 0-.18.117 1.31 1.31 0 0 0-.156.133.264.264 0 0 0-.07.195c0 .047.023.086.07.117a.704.704 0 0 1 .266.305c.052.12.11.237.172.352.062.114.143.21.242.289.099.078.253.117.46.117h.048c.208-.01.406-.065.594-.164.187-.099.375-.203.562-.313a.633.633 0 0 1 .102-.046.37.37 0 0 0 .101-.055l.57-.445a.926.926 0 0 0 .024-.102 2.75 2.75 0 0 0 .016-.11.236.236 0 0 0-.04-.14.4.4 0 0 0-.093-.094.34.34 0 0 0-.133-.054.909.909 0 0 1-.14-.04 1.083 1.083 0 0 1-.352-.14 1.457 1.457 0 0 0-.344-.156c-.02-.006-.036-.021-.047-.047a.983.983 0 0 1-.031-.094.23.23 0 0 1-.008-.102.126.126 0 0 0-.008-.078c0-.062.005-.127.016-.195a.551.551 0 0 1 .07-.195.417.417 0 0 1 .125-.14.411.411 0 0 1 .203-.056c.162 0 .279.06.352.18.073.12.112.25.117.39a.397.397 0 0 1-.039.18.379.379 0 0 0-.04.172c0 .042.014.07.04.086a.26.26 0 0 0 .102.031c.12 0 .197-.028.234-.085a.533.533 0 0 0 .062-.258c0-.12-.01-.253-.03-.399a1.32 1.32 0 0 0-.126-.406.969.969 0 0 0-.242-.313.574.574 0 0 0-.383-.124c-.27 0-.466.067-.586.203-.12.135-.182.338-.187.609 0 .078.005.156.015.234.01.079.016.157.016.235 0 .026-.003.039-.008.039a.218.218 0 0 1-.047-.016 4.263 4.263 0 0 1-.093-.039.774.774 0 0 0-.118-.039.514.514 0 0 0-.203-.008 1.007 1.007 0 0 1-.125.008c-.073 0-.11-.013-.11-.039 0-.078-.004-.177-.015-.297-.01-.12-.036-.24-.078-.36a.995.995 0 0 0-.156-.296c-.063-.078-.156-.12-.281-.125a.323.323 0 0 0-.227.086.905.905 0 0 0-.164.203.64.64 0 0 0-.086.266 5.4 5.4 0 0 1-.031.25 1.459 1.459 0 0 0 .07.406c.026.083.055.156.086.219.031.062.068.093.11.093.025 0 .06-.018.101-.054.042-.037.063-.07.063-.102 0-.016-.008-.026-.024-.031a.147.147 0 0 0-.047-.008c-.036 0-.068-.018-.094-.055a.468.468 0 0 1-.062-.125 5.144 5.144 0 0 1-.047-.148.564.564 0 0 1 .055-.398c.047-.084.133-.128.258-.133zM5.023 15.18c.125 0 .248-.01.368-.032a.97.97 0 0 0 .336-.125.614.614 0 0 0 .234-.242.943.943 0 0 0 .094-.375.816.816 0 0 0-.047-.273.963.963 0 0 0-.133-.25 2.763 2.763 0 0 0-.203-.281 2.763 2.763 0 0 1-.203-.282 62.93 62.93 0 0 1-.29-.43c-.093-.14-.187-.288-.28-.445a8.124 8.124 0 0 1-.235-.406 2.646 2.646 0 0 0-.266-.398 1.203 1.203 0 0 0-.218-.211.469.469 0 0 0-.29-.094.436.436 0 0 0-.296.11 2.26 2.26 0 0 0-.258.265 3.241 3.241 0 0 1-.297.305c-.11.099-.25.177-.422.234a.744.744 0 0 0-.312.172c-.073.073-.11.185-.11.336 0 .104.008.208.024.312.015.104.026.209.031.313 0 .14-.02.273-.063.398a1.157 1.157 0 0 0-.062.367c0 .141.05.24.148.297.1.058.211.097.336.117.157.027.305.047.446.063.14.016.278.04.414.07.135.032.27.065.406.102.135.036.279.094.43.172.03.015.078.034.14.054l.211.07c.078.027.151.048.219.063a.741.741 0 0 0 .148.024zm2.86-.938c.146 0 .302-.015.469-.047a3.54 3.54 0 0 0 .976-.336 2.59 2.59 0 0 0 .406-.257.222.222 0 0 0 .032-.047.305.305 0 0 0 .023-.063v-.008c.031-.114.057-.24.078-.375a8.63 8.63 0 0 0 .055-.414 8.98 8.98 0 0 1 .055-.414c.02-.135.039-.268.054-.398.021-.14.047-.276.078-.406.032-.13.073-.253.125-.368a1.03 1.03 0 0 1 .211-.304 1.54 1.54 0 0 1 .344-.25v-.016l-.008-.023a.29.29 0 0 1 .047-.149 1.4 1.4 0 0 1 .117-.164.582.582 0 0 1 .149-.133.946.946 0 0 1 .164-.078 9.837 9.837 0 0 0-.102-.375 4.938 4.938 0 0 1-.094-.375 7.126 7.126 0 0 0-.093-.476 2.954 2.954 0 0 0-.11-.36 1.317 1.317 0 0 0-.18-.32c-.077-.104-.174-.23-.288-.375a1.189 1.189 0 0 1-.118-.156.555.555 0 0 1-.046-.196 2.206 2.206 0 0 0-.047-.203 9.48 9.48 0 0 0-.242-.75 2.91 2.91 0 0 0-.172-.383 3.87 3.87 0 0 0-.172-.289c-.052-.078-.107-.117-.164-.117-.125 0-.274.05-.446.149-.171.099-.354.208-.546.328-.193.12-.38.232-.563.336-.182.104-.346.153-.492.148a.7.7 0 0 1-.43-.148 2.236 2.236 0 0 1-.36-.344c-.109-.13-.2-.242-.273-.336-.073-.094-.127-.146-.164-.156-.041 0-.065.031-.07.093a2.56 2.56 0 0 0-.008.211v.133c0 .032-.005.052-.016.063-.057.12-.12.237-.187.351-.068.115-.135.232-.203.352a1.611 1.611 0 0 0-.219.758c0 .078.005.156.016.234.01.078.036.154.078.227l-.016.03a1.31 1.31 0 0 1-.133.157 1.072 1.072 0 0 0-.132.164 2.796 2.796 0 0 0-.407.93c-.078.333-.12.672-.125 1.015 0 .089.006.178.016.266.01.089.016.177.016.266a.526.526 0 0 1-.008.086.525.525 0 0 0-.008.086.75.75 0 0 1 .313.109c.12.068.25.154.39.258.14.104.274.224.399.36.125.135.244.267.359.398.115.13.198.26.25.39.052.13.086.237.101.32a.444.444 0 0 1-.125.329.955.955 0 0 1-.312.203c.089.156.198.289.328.398.13.11.271.198.422.266.151.068.315.117.492.148.177.032.35.047.516.047zm3.133 1.11c.109 0 .216-.016.32-.047a1.65 1.65 0 0 0 .445-.203c.136-.089.26-.198.375-.329a3.07 3.07 0 0 1 .977-.75l.258-.117a2.18 2.18 0 0 0 .257-.133.962.962 0 0 0 .165-.132.256.256 0 0 0 .078-.188.295.295 0 0 0-.024-.117.58.58 0 0 0-.07-.117 5.136 5.136 0 0 1-.203-.305 1.978 1.978 0 0 1-.149-.297l-.125-.312a2.558 2.558 0 0 1-.11-.352.28.28 0 0 0-.054-.101.53.53 0 0 0-.46-.235.533.533 0 0 0-.266.07l-.266.149a7.335 7.335 0 0 1-.281.148.656.656 0 0 1-.297.07.411.411 0 0 1-.258-.077.636.636 0 0 1-.172-.211 2.218 2.218 0 0 1-.117-.258l-.094-.258a1.26 1.26 0 0 1-.14.188.666.666 0 0 0-.125.203c-.068.156-.11.33-.125.523-.026.302-.06.596-.102.883a4.7 4.7 0 0 1-.21.86 1.914 1.914 0 0 0-.063.273 2.88 2.88 0 0 0-.032.289c0 .255.079.466.235.633.156.166.367.25.633.25z"/></svg>
